X: 3008
T: A Man's A Man For A' That
P: A Man's A Man For A' That
C:Scotch
R:Strathspey (8x32)
B:RSCDS 30-5
Z:Anselm Lingnau <anselm@strathspey.org>
M:C
L:1/8
K:D
A/B/|"D"d>edA "G"B>d"A7"eg|"D"fedA "G"B2 "Em"B"A7"f/e/|\
  "D"d>edA "G"Bd"A7"e>g|"D"f>e"G"dB "A"A2 "A7"A A/B/|
  "D"d>edA "G"B>d"A7"eg|"D"fedA "G"B2 "Em"B"A7"f/e/|\
  "D"d>edA "G"Bd"A7"e>g|"D"f>e"G"dB "A"A2 A||
g|"D"f>gaf "A7"g>f e>g|"D7"f>gad "G"B2 Bg|\
  "D"f>g "D7"af/a/ "G"be"A"e>f|"Bm"d>e "G"e/d/c/B/ "D"A2 A g|
  "D"f>gaf "A7"g>f e>g|"D7"f>gad "G"B2 Bg|\
  "D"f>g "D7"af/a/ "G"be"A"e>f|"Bm"d>e "G"e/d/c/B/ "D"A2 A|]
%%center Book30/3005-Mans_A_Man_For_A_That-AL.abc

%%sep 1 1 500
%%sep 1 1 500

